X: 1960
T: Yandı Nağmenle Cihân
C: Ahmet Avni Konuk
O: Turkey
F: http://compmusic.upf.edu/node/140
N: suzidil--kupe--aksaksemai--yandi--ahmet_avni_konuk
N: makam= suzidil
N: form= kupe
N: usul= aksaksemai = 10/8
M: 10/8
L: 1/16
K: C ^1/4f ^g ^d 
Q: 1/4=102
%%MIDI tuningsystem comma53
f4 e2gf fee3/2d/ cde4z2  | a4 a2g2 a2b2 c'2ba gfe2  | 
w:  Yan dı  nağ *  *  *  *  *  *  *  men  |  le  ci hân  *  *  *  hep   | 
e4 e2d2 e2f2 fee3dc2  | e4 f2g2 a2ba gfed e2z2  | 
w:  yal *  nız  *  *  *  *  bir   |  ben  de ğil    | 
e4 e2d2 e2f2 fee3dc2  | c4 c2c/B/c/d/ cBBA GAB4z2  | 
w:  Ser te ser  *  *  *  *  aşk   |  eh li ne  *  *  *  *  *  *  *  *  *  ol  | 
ABA2 B2c3/2B/ ABA2 BcBA GFE2  | GABc BAG3FF/E/F/G/ FEE4z2  | 
w:  du  *  *  ni ha *  *  *  *  *  *  yet   |  Sûz_ *  *  *  i  *  Dil    | 
|


